svg/SJJB-OpenStreetMapIcons/shopping/motorcycle.svg

<?xml version="1.0" encoding="UTF-8" standalone="no"?>
<!-- Created with Inkscape (http://www.inkscape.org/) -->

<svg
   xmlns:dc="http://purl.org/dc/elements/1.1/"
   xmlns:cc="http://creativecommons.org/ns#"
   xmlns:rdf="http://www.w3.org/1999/02/22-rdf-syntax-ns#"
   xmlns:svg="http://www.w3.org/2000/svg"
   xmlns="http://www.w3.org/2000/svg"
   xmlns:xlink="http://www.w3.org/1999/xlink"
   xmlns:sodipodi="http://sodipodi.sourceforge.net/DTD/sodipodi-0.dtd"
   xmlns:inkscape="http://www.inkscape.org/namespaces/inkscape"
   version="1.0"
   width="580"
   height="580"
   id="svg2"
   sodipodi:version="0.32"
   inkscape:version="0.47 r22583"
   sodipodi:docname="shopping_motorcycle.svg"
   inkscape:output_extension="org.inkscape.output.svg.inkscape">
  <metadata
     id="metadata2975">
    <rdf:RDF>
      <cc:Work
         rdf:about="">
        <dc:format>image/svg+xml</dc:format>
        <dc:type
           rdf:resource="http://purl.org/dc/dcmitype/StillImage" />
        <cc:license
           rdf:resource="http://web.resource.org/cc/PublicDomain" />
        <dc:language>en</dc:language>
        <dc:title />
      </cc:Work>
    </rdf:RDF>
  </metadata>
  <sodipodi:namedview
     inkscape:window-height="1005"
     inkscape:window-width="1280"
     inkscape:pageshadow="2"
     inkscape:pageopacity="0.0"
     guidetolerance="10.0"
     gridtolerance="10.0"
     objecttolerance="10.0"
     borderopacity="1.0"
     bordercolor="#666666"
     pagecolor="#ffffff"
     id="base"
     inkscape:zoom="0.65172414"
     inkscape:cx="494.87957"
     inkscape:cy="344.66669"
     inkscape:window-x="-4"
     inkscape:window-y="-4"
     inkscape:current-layer="svg2"
     showgrid="false"
     inkscape:window-maximized="1"
     showguides="true"
     inkscape:guide-bbox="true" />
  <defs
     id="defs4">
    <inkscape:perspective
       sodipodi:type="inkscape:persp3d"
       inkscape:vp_x="0 : 290 : 1"
       inkscape:vp_y="6.1230318e-14 : 1000 : 0"
       inkscape:vp_z="580 : 290 : 1"
       inkscape:persp3d-origin="290 : 193.33333 : 1"
       id="perspective2441" />
    <inkscape:perspective
       id="perspective3452"
       inkscape:persp3d-origin="30 : 20 : 1"
       inkscape:vp_z="60 : 30 : 1"
       inkscape:vp_y="0 : 1000 : 0"
       inkscape:vp_x="0 : 30 : 1"
       sodipodi:type="inkscape:persp3d" />
    <symbol
       viewBox="244.5 110 489 219.9"
       id="symbol-university">
      <path
         id="path4460"
         d="M79,43l57,119c0,0,21-96,104-96s124,106,124,106l43-133l82-17L0,17L79,43z" />
      <path
         id="path4462"
         d="M94,176l-21,39"
         stroke-width="20"
         stroke="#000000"
         fill="none" />
      <path
         id="path4464"
         d="M300,19c0,10.5-22.6,19-50.5,19S199,29.5,199,19s22.6-19,50.5-19S300,8.5,300,19z" />
      <path
         id="path4466"
         d="M112,216l-16-38L64,88c0,0-9-8-4-35s16-24,16-24"
         stroke-width="20"
         stroke="#000000"
         ill="none" />
    </symbol>
    <inkscape:perspective
       id="perspective4471"
       inkscape:persp3d-origin="372.04724 : 350.78739 : 1"
       inkscape:vp_z="744.09448 : 526.18109 : 1"
       inkscape:vp_y="0 : 1000 : 0"
       inkscape:vp_x="0 : 526.18109 : 1"
       sodipodi:type="inkscape:persp3d" />
    <inkscape:perspective
       id="perspective4668"
       inkscape:persp3d-origin="6 : 4 : 1"
       inkscape:vp_z="12 : 6 : 1"
       inkscape:vp_y="0 : 1000 : 0"
       inkscape:vp_x="0 : 6 : 1"
       sodipodi:type="inkscape:persp3d" />
    <inkscape:perspective
       id="perspective3826"
       inkscape:persp3d-origin="0.5 : 0.33333333 : 1"
       inkscape:vp_z="1 : 0.5 : 1"
       inkscape:vp_y="0 : 1000 : 0"
       inkscape:vp_x="0 : 0.5 : 1"
       sodipodi:type="inkscape:persp3d" />
    <inkscape:perspective
       id="perspective3855"
       inkscape:persp3d-origin="0.5 : 0.33333333 : 1"
       inkscape:vp_z="1 : 0.5 : 1"
       inkscape:vp_y="0 : 1000 : 0"
       inkscape:vp_x="0 : 0.5 : 1"
       sodipodi:type="inkscape:persp3d" />
    <inkscape:perspective
       id="perspective3909"
       inkscape:persp3d-origin="0.5 : 0.33333333 : 1"
       inkscape:vp_z="1 : 0.5 : 1"
       inkscape:vp_y="0 : 1000 : 0"
       inkscape:vp_x="0 : 0.5 : 1"
       sodipodi:type="inkscape:persp3d" />
    <inkscape:perspective
       id="perspective3950"
       inkscape:persp3d-origin="0.5 : 0.33333333 : 1"
       inkscape:vp_z="1 : 0.5 : 1"
       inkscape:vp_y="0 : 1000 : 0"
       inkscape:vp_x="0 : 0.5 : 1"
       sodipodi:type="inkscape:persp3d" />
    <inkscape:perspective
       id="perspective3972"
       inkscape:persp3d-origin="0.5 : 0.33333333 : 1"
       inkscape:vp_z="1 : 0.5 : 1"
       inkscape:vp_y="0 : 1000 : 0"
       inkscape:vp_x="0 : 0.5 : 1"
       sodipodi:type="inkscape:persp3d" />
    <inkscape:perspective
       id="perspective3994"
       inkscape:persp3d-origin="0.5 : 0.33333333 : 1"
       inkscape:vp_z="1 : 0.5 : 1"
       inkscape:vp_y="0 : 1000 : 0"
       inkscape:vp_x="0 : 0.5 : 1"
       sodipodi:type="inkscape:persp3d" />
    <inkscape:perspective
       id="perspective4016"
       inkscape:persp3d-origin="0.5 : 0.33333333 : 1"
       inkscape:vp_z="1 : 0.5 : 1"
       inkscape:vp_y="0 : 1000 : 0"
       inkscape:vp_x="0 : 0.5 : 1"
       sodipodi:type="inkscape:persp3d" />
    <inkscape:perspective
       id="perspective4837"
       inkscape:persp3d-origin="0.5 : 0.33333333 : 1"
       inkscape:vp_z="1 : 0.5 : 1"
       inkscape:vp_y="0 : 1000 : 0"
       inkscape:vp_x="0 : 0.5 : 1"
       sodipodi:type="inkscape:persp3d" />
    <inkscape:perspective
       id="perspective4971"
       inkscape:persp3d-origin="0.5 : 0.33333333 : 1"
       inkscape:vp_z="1 : 0.5 : 1"
       inkscape:vp_y="0 : 1000 : 0"
       inkscape:vp_x="0 : 0.5 : 1"
       sodipodi:type="inkscape:persp3d" />
    <inkscape:perspective
       id="perspective6216"
       inkscape:persp3d-origin="0.5 : 0.33333333 : 1"
       inkscape:vp_z="1 : 0.5 : 1"
       inkscape:vp_y="0 : 1000 : 0"
       inkscape:vp_x="0 : 0.5 : 1"
       sodipodi:type="inkscape:persp3d" />
    <inkscape:perspective
       id="perspective6764"
       inkscape:persp3d-origin="0.5 : 0.33333333 : 1"
       inkscape:vp_z="1 : 0.5 : 1"
       inkscape:vp_y="0 : 1000 : 0"
       inkscape:vp_x="0 : 0.5 : 1"
       sodipodi:type="inkscape:persp3d" />
    <inkscape:perspective
       id="perspective6817"
       inkscape:persp3d-origin="0.5 : 0.33333333 : 1"
       inkscape:vp_z="1 : 0.5 : 1"
       inkscape:vp_y="0 : 1000 : 0"
       inkscape:vp_x="0 : 0.5 : 1"
       sodipodi:type="inkscape:persp3d" />
    <radialGradient
       gradientUnits="userSpaceOnUse"
       gradientTransform="scale(0.79354273,1.2601716)"
       xlink:href="#linearGradient829"
       id="radialGradient874"
       cx="180.2453"
       cy="198.41902"
       r="101.58017"
       fx="180.2453"
       fy="198.41902" />
    <linearGradient
       id="linearGradient829">
      <stop
         style="stop-color: rgb(255, 255, 255); stop-opacity: 0.341667;"
         offset="0.0000000"
         id="stop830" />
      <stop
         style="stop-color: rgb(255, 255, 255); stop-opacity: 0;"
         offset="1.0000000"
         id="stop831" />
    </linearGradient>
    <radialGradient
       gradientUnits="userSpaceOnUse"
       gradientTransform="scale(1.007004,0.99304475)"
       xlink:href="#linearGradient829"
       id="radialGradient832"
       cx="360.85146"
       cy="167.47372"
       r="46.394721"
       fx="360.85146"
       fy="167.47372" />
    <linearGradient
       id="linearGradient6826">
      <stop
         style="stop-color: rgb(255, 255, 255); stop-opacity: 0.341667;"
         offset="0.0000000"
         id="stop6828" />
      <stop
         style="stop-color: rgb(255, 255, 255); stop-opacity: 0;"
         offset="1.0000000"
         id="stop6830" />
    </linearGradient>
    <linearGradient
       gradientUnits="userSpaceOnUse"
       gradientTransform="scale(0.74491357,1.3424376)"
       xlink:href="#linearGradient855"
       id="linearGradient850"
       x1="465.29425"
       y1="248.24467"
       x2="463.27056"
       y2="405.7687"
       spreadMethod="pad" />
    <linearGradient
       id="linearGradient855">
      <stop
         style="stop-color: rgb(255, 255, 255); stop-opacity: 0;"
         offset="0.0000000"
         id="stop856" />
      <stop
         style="stop-color: rgb(255, 166, 23); stop-opacity: 0.733333;"
         offset="1.0000000"
         id="stop857" />
    </linearGradient>
    <linearGradient
       gradientUnits="userSpaceOnUse"
       gradientTransform="scale(1.4586159,0.68558144)"
       xlink:href="#linearGradient855"
       id="linearGradient854"
       x1="157.80581"
       y1="120.96176"
       x2="155.40575"
       y2="231.63491" />
    <linearGradient
       id="linearGradient6837">
      <stop
         style="stop-color: rgb(255, 255, 255); stop-opacity: 0;"
         offset="0.0000000"
         id="stop6839" />
      <stop
         style="stop-color: rgb(255, 166, 23); stop-opacity: 0.733333;"
         offset="1.0000000"
         id="stop6841" />
    </linearGradient>
    <inkscape:perspective
       id="perspective6928"
       inkscape:persp3d-origin="0.5 : 0.33333333 : 1"
       inkscape:vp_z="1 : 0.5 : 1"
       inkscape:vp_y="0 : 1000 : 0"
       inkscape:vp_x="0 : 0.5 : 1"
       sodipodi:type="inkscape:persp3d" />
    <inkscape:perspective
       id="perspective10781"
       inkscape:persp3d-origin="0.5 : 0.33333333 : 1"
       inkscape:vp_z="1 : 0.5 : 1"
       inkscape:vp_y="0 : 1000 : 0"
       inkscape:vp_x="0 : 0.5 : 1"
       sodipodi:type="inkscape:persp3d" />
    <inkscape:perspective
       id="perspective10806"
       inkscape:persp3d-origin="0.5 : 0.33333333 : 1"
       inkscape:vp_z="1 : 0.5 : 1"
       inkscape:vp_y="0 : 1000 : 0"
       inkscape:vp_x="0 : 0.5 : 1"
       sodipodi:type="inkscape:persp3d" />
  </defs>
  <g
     id="g1327">
    <path
       d="M 66.275,1.768 C 24.94,1.768 1.704,23.139 1.704,66.804 L 1.704,516.927 C 1.704,557.771 22.599,579.156 63.896,579.156 L 515.92,579.156 C 557.227,579.156 578.149,558.841 578.149,516.927 L 578.149,66.804 C 578.149,24.203 557.227,1.768 514.628,1.768 C 514.624,1.768 66.133,1.625 66.275,1.768 z "
       style="fill:#111;stroke:#eee;stroke-width:3.40799999"
       id="path1329" />
  </g>
  <g
     id="layer3"
     inkscape:label="Layout"
     style="display:none;stroke:#757575;stroke-opacity:1"
     transform="matrix(48.14969,0,0,48.14969,-536.27327,-33.306752)">
    <rect
       style="fill:none;stroke:#757575;stroke-width:0.10000000000000001;stroke-miterlimit:4;stroke-dasharray:none;stroke-opacity:1;display:inline"
       id="rect4134"
       width="10"
       height="10"
       x="1"
       y="1" />
    <rect
       style="fill:none;stroke:#757575;stroke-width:0.10000000000000001;stroke-miterlimit:4;stroke-dasharray:none;stroke-opacity:1;display:inline"
       id="rect4136"
       width="8"
       height="8"
       x="2"
       y="2" />
  </g>
  <g
     id="g3338"
     transform="matrix(1.3973279,-0.2437849,0.2437849,1.3973279,-185.07402,-56.183307)" />
  <g
     id="g10860"
     transform="matrix(1.5423079,0,0,1.5423079,-1078.6207,-115.49981)">
    <path
       style="fill:#ffffff"
       d="M 906.49798,124.68388 C 902.04926,107.53608 886.39785,94.837006 867.91544,94.837006 C 845.83361,94.837006 827.99828,112.59145 827.99828,134.63283 C 827.99828,138.35358 828.44316,141.75079 829.37334,145.06711 H 845.38874 C 846.56158,147.81722 847.85576,149.3945 847.85576,149.3945 C 852.66846,156.35068 860.7166,160.83984 869.81626,160.83984 C 884.57792,160.83984 896.58947,148.8283 896.58947,134.06663 C 896.58947,130.66943 897.43877,127.59577 896.02327,124.68388 H 906.49798 z"
       id="path6039" />
    <path
       style="fill:#ffffff"
       d="M 905.40602,362.69043 C 901.19996,366.93694 895.41662,370.21281 888.90531,370.21281 L 888.86487,283.46276 L 948.88216,266.23408 L 963.92692,295.83829 L 905.40602,362.69043 z"
       id="path6041" />
    <path
       style="fill:#ffffff"
       d="M 855.01415,164.27749 C 851.05075,159.86921 845.34829,157.07865 838.91787,157.07865 C 832.08302,157.07865 825.97614,160.2332 822.05318,165.20768 L 774.41142,237.96448 C 772.47016,241.19992 771.3782,245.00155 771.3782,249.0054 C 771.3782,256.52778 775.17984,263.07953 780.92273,266.92161 L 844.82254,302.39005 V 362.73087 C 844.82254,371.26433 851.73828,378.22051 860.27173,378.22051 C 868.76474,378.22051 875.72092,371.26433 875.72092,362.73087 V 287.38572 C 875.72092,287.38572 877.74307,275.37418 864.11381,268.82243 L 824.27754,247.95388 L 853.31555,203.62845 L 868.7243,227.81331 C 871.79796,232.7069 875.96358,234.60772 879.76522,234.52683 L 919.31839,234.36506 C 935.41467,234.36506 935.41467,213.41563 919.31839,213.49652 H 887.24715 L 855.01415,164.27749 z"
       id="path6043" />
    <path
       style="fill:#ffffff"
       d="M 1030.132,263.16042 C 1030.7791,263.8075 1031.1026,264.57592 1031.1026,265.62744 C 1031.1026,267.52825 1029.5253,269.10553 1027.6245,269.10553 C 1027.0988,269.10553 1026.7752,269.10553 1026.3708,268.94375 C 1019.5359,266.03187 1015.2085,264.21193 1007.2413,264.21193 C 1001.9837,264.21193 995.4724,266.03187 987.95001,272.0983 L 980.99383,258.34771 C 989.68906,255.75936 996.80701,253.45412 1004.2485,253.45412 C 1016.1387,253.45412 1022.3669,255.92114 1030.132,263.16042 z"
       id="path6045" />
    <path
       style="fill:#ffffff"
       d="M 764.42202,273.75646 L 831.47637,310.72129 L 831.63815,325.56384 L 755.03927,283.38188 C 749.49859,280.55087 742.05709,278.89271 736.75907,278.89271 C 728.8727,278.89271 724.46442,280.71264 717.67001,283.62453 C 717.22514,283.7863 716.86115,283.7863 716.41628,283.7863 C 714.51546,283.7863 712.89775,282.20903 712.89775,280.30821 C 712.89775,279.29714 713.30218,278.48828 713.90882,277.8412 C 721.67386,270.56147 729.60067,268.1349 741.45045,268.1349 C 747.55733,268.1349 754.91794,268.86287 764.42202,273.75646 z"
       id="path6047" />
    <path
       style="fill:#ffffff"
       d="M 770.65023,409.76598 C 792.4894,409.76598 810.2034,392.05199 810.2034,370.17237 C 810.2034,348.29275 792.4894,330.57876 770.65023,330.57876 C 748.81106,330.57876 731.09706,348.29275 731.09706,370.17237 C 731.09706,392.05199 748.81106,409.76598 770.65023,409.76598 z M 713.58528,370.21281 C 713.58528,338.70778 739.1452,313.10742 770.65023,313.10742 C 802.1957,313.10742 827.75563,338.70778 827.75563,370.21281 C 827.75563,401.71784 802.1957,427.31821 770.65023,427.31821 C 739.1452,427.31821 713.58528,401.71784 713.58528,370.21281 z"
       id="path6049" />
    <path
       style="fill:#ffffff"
       d="M 1006.6751,409.76598 C 1028.5143,409.76598 1046.2687,392.05199 1046.2687,370.17237 C 1046.2687,348.29275 1028.5547,330.57876 1006.6751,330.57876 C 984.79547,330.57876 967.12191,348.29275 967.12191,370.17237 C 967.12191,392.05199 984.83591,409.76598 1006.6751,409.76598 z M 949.61013,370.21281 C 949.61013,338.70778 975.12961,313.10742 1006.6751,313.10742 C 1038.1801,313.10742 1063.74,338.70778 1063.74,370.21281 C 1063.74,401.71784 1038.1801,427.31821 1006.6751,427.31821 C 975.12961,427.31821 949.61013,401.71784 949.61013,370.21281 z"
       id="path6051" />
    <path
       style="fill:#ffffff"
       d="M 994.05689,304.93795 L 966.31305,249.49071 C 962.67319,242.85807 955.59568,238.28803 947.46666,238.28803 H 929.34823 C 925.8297,238.28803 922.95825,241.19992 922.95825,244.75889 C 922.95825,248.31787 925.8297,251.14887 929.34823,251.14887 L 947.46666,251.06799 C 950.49987,251.06799 953.89708,253.13058 955.19125,256.12335 L 981.31738,309.34623 L 994.05689,304.93795 z"
       id="path6053" />
  </g>
</svg>

<svg xmlns="http://www.w3.org/2000/svg" viewBox="0 0 580 580"><path d="m66.28 1.768c-41.34 0-64.57 21.371-64.57 65.04v450.12c0 40.844 20.895 62.23 62.19 62.23h452.02c41.31 0 62.23-20.315 62.23-62.23v-450.12c0-42.601-20.922-65.04-63.52-65.04-.004 0-448.5-.143-448.35 0z" fill="#111" stroke="#eee" stroke-width="3.408"/><g transform="matrix(1.54231 0 0 1.54231-1078.62-115.5)" fill="#fff"><path d="m906.5 124.68c-4.449-17.15-20.1-29.847-38.583-29.847-22.08 0-39.917 17.754-39.917 39.796 0 3.721.445 7.118 1.375 10.434h16.02c1.173 2.75 2.467 4.327 2.467 4.327 4.813 6.956 12.861 11.445 21.961 11.445 14.762 0 26.773-12.01 26.773-26.773 0-3.397.849-6.471-.566-9.383h10.475"/><path d="m905.41 362.69c-4.206 4.247-9.989 7.522-16.501 7.522l-.04-86.75 60.02-17.229 15.04 29.604-58.52 66.852"/><path d="m855.01 164.28c-3.963-4.408-9.666-7.199-16.1-7.199-6.835 0-12.942 3.155-16.865 8.129l-47.642 72.76c-1.941 3.235-3.033 7.04-3.033 11.04 0 7.522 3.802 14.07 9.545 17.916l63.9 35.468v60.34c0 8.533 6.916 15.49 15.449 15.49 8.493 0 15.449-6.956 15.449-15.49v-75.35c0 0 2.022-12.01-11.607-18.563l-39.836-20.869 29.04-44.33 15.409 24.18c3.074 4.894 7.239 6.794 11.04 6.714l39.553-.162c16.1 0 16.1-20.949 0-20.869h-32.07l-32.23-49.22"/><path d="m1030.13 263.16c.647.647.971 1.416.971 2.467 0 1.901-1.577 3.478-3.478 3.478-.526 0-.849 0-1.254-.162-6.835-2.912-11.162-4.732-19.13-4.732-5.258 0-11.769 1.82-19.291 7.886l-6.956-13.751c8.695-2.588 15.813-4.894 23.255-4.894 11.89 0 18.12 2.467 25.884 9.706"/><path d="m764.42 273.76l67.05 36.965.162 14.843-76.6-42.18c-5.541-2.831-12.982-4.489-18.28-4.489-7.886 0-12.295 1.82-19.09 4.732-.445.162-.809.162-1.254.162-1.901 0-3.519-1.577-3.519-3.478 0-1.011.404-1.82 1.011-2.467 7.765-7.28 15.692-9.706 27.542-9.706 6.107 0 13.467.728 22.972 5.622"/><path d="m770.65 409.77c21.839 0 39.553-17.714 39.553-39.594 0-21.88-17.714-39.594-39.553-39.594-21.839 0-39.553 17.714-39.553 39.594 0 21.88 17.714 39.594 39.553 39.594m-57.06-39.553c0-31.505 25.56-57.11 57.06-57.11 31.545 0 57.11 25.6 57.11 57.11 0 31.505-25.56 57.11-57.11 57.11-31.505 0-57.06-25.6-57.06-57.11"/><path d="m1006.68 409.77c21.839 0 39.594-17.714 39.594-39.594 0-21.88-17.714-39.594-39.594-39.594-21.88 0-39.553 17.714-39.553 39.594 0 21.88 17.714 39.594 39.553 39.594m-57.06-39.553c0-31.505 25.519-57.11 57.06-57.11 31.505 0 57.06 25.6 57.06 57.11 0 31.505-25.56 57.11-57.06 57.11-31.545 0-57.06-25.6-57.06-57.11"/><path d="m994.06 304.94l-27.744-55.45c-3.64-6.633-10.717-11.203-18.846-11.203h-18.12c-3.519 0-6.39 2.912-6.39 6.471 0 3.559 2.871 6.39 6.39 6.39l18.12-.081c3.033 0 6.43 2.063 7.725 5.055l26.13 53.22 12.74-4.408"/></g></svg>
